icon-themes/breeze_svg/svx/res/sh02.svg

<svg viewBox="0 0 16 16" xmlns="http://www.w3.org/2000/svg"><path d="m13 5v8h-8v2h10v-10z" fill="#1d99f3"/><path d="m3 3v10h10v-10zm1 1h8v8h-8z" fill="#4d4d4d"/></svg>

<svg xmlns="http://www.w3.org/2000/svg" viewBox="0 0 16 16">
 <path 
     style="fill:#1d99f3" 
     d="M 13 5 L 13 13 L 5 13 L 5 15 L 15 15 L 15 5 L 13 5 z "
     />
 <path 
     style="fill:#4d4d4d" 
     d="M 3 3 L 3 13 L 13 13 L 13 3 L 3 3 z M 4 4 L 12 4 L 12 12 L 4 12 L 4 4 z "
     />
 </svg>
